contributed-vectors/mastodon_alt_two.svg

<svg width="192" height="192" viewBox="0 0 192 192" fill="none" xmlns="http://www.w3.org/2000/svg">
<path d="M96 184C144.601 184 184 144.601 184 96C184 47.3989 144.601 8 96 8C47.3989 8 8 47.3989 8 96C8 144.601 47.3989 184 96 184Z" fill="#9ABEFF"/>
<path d="M132.997 88.6235C132.997 72.3532 121.57 67.5844 121.57 67.5844C115.805 65.1172 105.911 64.0781 95.6325 64H95.3798C85.1011 64.0781 75.2142 65.1172 69.4521 67.5844C69.4521 67.5844 58.0234 72.3532 58.0234 88.6235C58.0234 92.3501 57.9464 96.8033 58.0719 101.528C58.4871 117.438 61.199 133.121 76.9702 137.014C84.2406 138.81 90.4848 139.185 95.512 138.927C104.631 138.458 109.741 135.892 109.741 135.892L109.442 129.721C109.442 129.721 102.925 131.638 95.6074 131.403C88.3571 131.172 80.7084 130.674 79.5366 122.371C79.4235 121.599 79.3676 120.821 79.3692 120.042C84.6752 121.148 90.0743 121.82 95.5053 122.05C101.021 122.286 106.192 121.749 111.446 121.164C121.52 120.042 130.292 114.252 131.394 108.963C133.138 100.628 132.997 88.6235 132.997 88.6235Z" fill="white"/>
<path d="M109.411 77.36C104.851 77.36 101.331 79.44 99.3312 82.96C97.4912 79.6 94.2913 77.36 90.2113 77.36C86.5312 77.36 83.5712 79.12 81.4913 81.92V78H71.2512V110H81.4913V91.44C81.4913 89.12 82.9312 86.4 86.0513 86.4C88.8512 86.4 90.6912 88.64 90.6912 91.44V110H100.931V91.44C100.931 89.12 102.371 86.4 105.491 86.4C108.291 86.4 110.211 88.64 110.211 91.44V110H120.371V89.76C120.371 82.32 116.451 77.36 109.411 77.36Z" fill="#9ABEFF"/>
</svg>

<svg xmlns="http://www.w3.org/2000/svg" width="192" height="192" fill="none"><path fill="#9ABEFF" d="M96 184c48.601 0 88-39.399 88-88S144.601 8 96 8 8 47.399 8 96s39.399 88 88 88Z"/><path fill="#fff" d="M132.997 88.624c0-16.27-11.427-21.04-11.427-21.04-5.765-2.467-15.659-3.506-25.938-3.584h-.252c-10.279.078-20.166 1.117-25.928 3.584 0 0-11.429 4.77-11.429 21.04 0 3.726-.077 8.18.049 12.904.415 15.91 3.127 31.593 18.898 35.486 7.27 1.796 13.515 2.171 18.542 1.913 9.119-.469 14.229-3.035 14.229-3.035l-.299-6.171s-6.517 1.917-13.835 1.682c-7.25-.231-14.899-.729-16.07-9.032a15.838 15.838 0 0 1-.168-2.329 99.784 99.784 0 0 0 16.136 2.008c5.516.236 10.687-.301 15.941-.886 10.074-1.122 18.846-6.912 19.948-12.201 1.744-8.335 1.603-20.34 1.603-20.34Z"/><path fill="#9ABEFF" d="M109.411 77.36c-4.56 0-8.08 2.08-10.08 5.6-1.84-3.36-5.04-5.6-9.12-5.6-3.68 0-6.64 1.76-8.72 4.56V78h-10.24v32h10.24V91.44c0-2.32 1.44-5.04 4.56-5.04 2.8 0 4.64 2.24 4.64 5.04V110h10.24V91.44c0-2.32 1.44-5.04 4.56-5.04 2.8 0 4.72 2.24 4.72 5.04V110h10.16V89.76c0-7.44-3.92-12.4-10.96-12.4Z"/></svg>
